X:1
T:James Gibb editions
T:Jubilate Deo - Banchieri
T:#
%%score [ 1 2 3 4 ]
L:1/8
Q:1/4=80
M:4/4
K:F
V:1 treble nm="Soprano" snm="S"
V:2 treble nm="Alto" snm="A"
V:3 treble-8 nm="Tenor" snm="T"
V:4 bass nm="Bass" snm="B"
V:1
"^Adriano Banchieri\n(1568-1634)""^Jubilate Deo" d3 d GB A2 | G (c2 B/A/ B)B A2- | A2 G2 z4 | %3
w: Ju- bi- la- te De-|o, om\- * * * nis ter\-|* ra:|
[M:4/4] z4 z d2 c | BG A2 D2 z G- | G^FGG G2 G2 | BA (G3 ^F/!courtesy!=E/ F2) | G4 z ddA | %8
w: Ju- bi-|la- te De- o, Ju\-|* bi- la- te De- o,|om- nis ter\- * * *|ra: Ser- vi- te|
 (B/A/B/c/ d)B A4 | z GGD FE D2 | z ddA A2 A2 | A2 dd (d/c/B/A/ B3/2A/4G/4 | A B2 A) B4 | %13
w: Do\- * * * * mi- no,|ser- vi- te Do- mi- no,|ser- vi- te Do- mi-|no in lae- ti\- * * * * * *|* * ti- a,|
 BB (c/B/A/G/ ^F G2) F | G d2 d GB A2 | A (c2- B/A/ B)B A2- | A2 G2 z4 | z4 z d2 c | %18
w: in lae- ti\- * * * * * ti-|a. Ju- bi- la- te De-|o, om\- * * * nis ter\-|* ra:|Ju- bi-|
 BG A2 D2 z G- | G^FGG G2 G2 | BA (G3 ^F/!courtesy!=E/ F2) | G4 z ddA | (B/A/B/c/ d)B A4 | %23
w: la- te De- o, Ju\-|* bi- la- te De- o,|om- nis ter\- * * *|ra: Ser- vi- te|Do\- * * * * mi- no,|
 z GGD FE D2 | z ddA A2 A2 | A2 dd (d/c/B/A/ B3/2A/4G/4 | A B2) A B4 | %27
w: ser- vi- te Do- mi- no,|ser- vi- te Do- mi-|no in lae- ti\- * * * * * *|* * ti- a,|
[Q:1/4=79] B[Q:1/4=78]B[Q:1/4=78] (c/[Q:1/4=77]B/[Q:1/4=77]A/[Q:1/4=76]G/[Q:1/4=75] ^F2[Q:1/4=74] G2- | %28
w: in lae- ti\- * * * * *|
[Q:1/4=72] G2)[Q:1/4=71] ^F2[Q:1/4=68] G4- |[Q:1/4=67] G8 |] %30
w: * ti- a.||
V:2
 z4 z G2 F | _EC D2 G, (G2 ^F/=E/ | ^F)F G2 D2 z2 |[M:4/4] z4 z2 D2- | DD (F/E/F/G/ A)^FGD | %5
w: Ju- bi-|la- te De- o, om\- * *|* nis ter- ra:|Ju\-|* bi- la\- * * * * te De- o,|
 z2 z (_E2 D/C/ D>C | B,2 C2 D4 | D2 z G (G^F/E/ F)F | G2 G,2 A,2 z D | DG, B,/C/ D2) ^C D2 | %10
w: om\- * * * *|* nis ter-|ra: Ser- vi\- * * * te|Do- mi- no, ser-|vi- te Dò\- * * mi- no,|
 z2 z D EEFD | F2 FF (D3/2E/4F/4 G)G | F4 FF (G/F/G/A/ | G>F _E/D/C/E/ D2) D2 | D4 z G2 F | %15
w: ser- vi- te Do- mi-|no in lae- ti\- * * * ti-|a, in lae- ti\- * * *|* * * * * * * ti-|a. Ju- bi-|
 _EC D2 G, (G2 ^F/=E/ | ^F)F G2 D2 z2 | z4 z2 D2- | DD (F/E/F/G/ A)^FGD | z2 z (_E2 D/C/ D>C | %20
w: la- te De- o, om\- * *|* nis ter- ra:|Ju\-|* bi- la\- * * * * te De- o,|om\- * * * *|
 B,2) C2 D4 | D2 z G (G^F/E/ F)F | G2 G,2 A,2 z D | (DG,) (B,/C/ D2) ^C D2 | z2 z D EEFD | %25
w: * nis ter-|ra: Ser- vi\- * * * te|Do- mi- no, ser-|vi\- * Do\- * * mi- no,|ser- vi- te Do- mi-|
 F2 FF (D3/2E/4F/4 G)G | F4 FF (G/F/G/A/ | G3/2 x/ _E/D/C/E/ D4-) | D2 D2 D4- | D8 |] %30
w: no in lae- ti\- * * * ti-|a, in lae- ti\- * * *||* ti- a.||
V:3
 z8 | z4 z2 d2- | ddG B A2 G (c- |[M:4/4][K:treble-8] cB/A/ B)B A4 | G2 z2 z2 z d- | dcBG cG G2- | %6
w: |Ju\-|* bi- la- te De- o, om\-|* * * * nis ter-|ra: Ju\-|* bi- la- te De- o, om\-|
 G2 G2 A4 | G4 z4 | z4 z ddA | (B/A/B/c/ d)B AA (D/E/F/G/ | A)BBA A2 z d | dABF G3 _e- | %12
w: * nis ter-|ra:|Ser- vi- te|Do\- * * * * mi- no, ser- vi\- * * *|* te Do- mi- no, ser-|vi- te Do- mi- no in|
 ed c>c d4- | d2 c3 B A>A | G4 z4 | z4 z2 d2- | ddGB A2 G(c- | cB/A/ B)B A4 | G2 z2 z2 z d- | %19
w: * lae- ti- ti- a,|* in lae- ti- ti-|a.|Ju\-|* bi- la- te De- o, om\-|* * * * nis ter-|ra: Ju\-|
 dcBG cG G2- | G2 G2 A4 | G4 z4 | z4 z eeA | (B/A/B/c/ d)B AA (D/E/F/G/ | A)BBA A2 z d | %25
w: * bi- la- te De- o, om\-|* nis ter-|ra:|Ser- vi- te|Do\- * * * * mi- no, ser- vi\- * * *|* te Do- mi- no, ser-|
 dABF G3 _e- | ed c>c d4- | d2 c4 B2 | A3 A G4- | G8 |] %30
w: vi- te Do- mi- no in|* lae- ti- ti- a,|* in lae-|ti- ti- a.||
V:4
 z8 | z8 | z2 z G,2 =F,_E,C, |[M:4/4] D,2 G,, (G,2 ^F,/!courtesy!=E,/ F,)F, | G,2 D, D,2 D,G,,B,, | %5
w: ||Ju- bi- la- te|De- o, om\- * * * nis|ter- ra: Ju- bi- la- te|
 A,,2 G,, (C,2 B,,/A,,/ B,,)G,, | (_E,4 D,4) | G,,4 z4 | z2 z G, (G,^F,/E,/ F,)F, | %9
w: De- o, om\- * * * nis|ter\- *|ra:|Ser- vi\- * * * te|
 G,2 G,,2 A,,2 z D, | D,G,, (B,,/C,/ D,2) ^C, D,2- | D,2 B,,B,, (B,/A,/G,/F,/ _E,/F,/G,/E,/ | %12
w: Do- mi- no, ser-|vi- te Do\- * * mi- no|* in lae- ti\- * * * * * * *|
 F,2 F,2 B,,2 G,,G,, | (G,/F,/_E,/C,/ C,/D,/E,/C,/ D,2) D,2 | G,,4 z4 | z8 | z2 z G,2 F,_E,C, | %17
w: * ti- a, in lae-|ti\- * * * * * * * * ti-|a.||Ju- bi- la- te|
 D,2 G,, G,2 ^F,/!courtesy!=E,/ F,)F, | G,2 D, D,2 D,G,,B,, | A,,2 G,, (C,2 B,,/A,,/ B,,)G,, | %20
w: De- o, om\- * * * nis|ter- ra: Ju- bi- la- te|De- o, om\- * * * nis|
 (_E,4 D,4) | G,,4 z4 | z2 z G, (G,^F,/E,/ F,)F, | G,2 G,,2 A,,2 z D, | %24
w: ter\- *|ra:|Ser- vi\- * * * te|Do- mi- no, ser-|
 D,G,, (B,,/C,/ D,2) ^C, D,2- | D,2 B,,B,, (B,/A,/G,/F,/ _E,/F,/G,/E,/ | F,2) F,2 B,,2 G,,G,, | %27
w: vi- te Do\- * * mi- no|* in lae- ti\- * * * * * * *|* ti- a, in lae-|
 (G,/F,/_E,/C,/ C,/D,/E,/C,/ D,4- | D,2) D,2 G,,4- | G,,8 |] %30
w: ti\- * * * * * * * *|* ti- a.||

